styles/5/Numix/22/places/green-folder-art.svg

<?xml version="1.0" encoding="UTF-8" standalone="no"?>
<!-- Created with Inkscape (http://www.inkscape.org/) -->

<svg
   xmlns:dc="http://purl.org/dc/elements/1.1/"
   xmlns:cc="http://creativecommons.org/ns#"
   xmlns:rdf="http://www.w3.org/1999/02/22-rdf-syntax-ns#"
   xmlns:svg="http://www.w3.org/2000/svg"
   xmlns="http://www.w3.org/2000/svg"
   xmlns:xlink="http://www.w3.org/1999/xlink"
   xmlns:sodipodi="http://sodipodi.sourceforge.net/DTD/sodipodi-0.dtd"
   xmlns:inkscape="http://www.inkscape.org/namespaces/inkscape"
   width="22"
   height="22"
   id="svg2"
   version="1.1"
   inkscape:version="0.91 r"
   sodipodi:docname="green-folder-art.svg"
   inkscape:export-filename="/media/Data/Main/Visuals/Icons/Numix/Desktop/repos/numix-wiki/Gjorgi/Numix-folders/48/New/folder-144.png"
   inkscape:export-xdpi="270"
   inkscape:export-ydpi="270">
  <defs
     id="defs4">
    <linearGradient
       id="linearGradient3886-9">
      <stop
         style="stop-color:#000000;stop-opacity:1;"
         offset="0"
         id="stop3888-1" />
      <stop
         style="stop-color:#000000;stop-opacity:0.19607843;"
         offset="1"
         id="stop3890-9" />
    </linearGradient>
    <radialGradient
       r="24"
       fy="40.5"
       fx="24"
       cy="40.5"
       cx="24"
       gradientTransform="matrix(0.625,0,0,0.10416663,-4,1045.1435)"
       gradientUnits="userSpaceOnUse"
       id="radialGradient3219"
       xlink:href="#linearGradient3886-9"
       inkscape:collect="always" />
  </defs>
  <sodipodi:namedview
     id="base"
     pagecolor="#ffffff"
     bordercolor="#666666"
     borderopacity="1.0"
     inkscape:pageopacity="0.0"
     inkscape:pageshadow="2"
     inkscape:zoom="22.603171"
     inkscape:cx="11.903012"
     inkscape:cy="9.3369068"
     inkscape:document-units="px"
     inkscape:current-layer="layer1"
     showgrid="true"
     inkscape:window-width="1280"
     inkscape:window-height="998"
     inkscape:window-x="0"
     inkscape:window-y="0"
     inkscape:window-maximized="1"
     showguides="true"
     inkscape:guide-bbox="true">
    <inkscape:grid
       type="xygrid"
       id="grid2985"
       empspacing="5"
       visible="true"
       enabled="true"
       snapvisiblegridlinesonly="true" />
  </sodipodi:namedview>
  <metadata
     id="metadata7">
    <rdf:RDF>
      <cc:Work
         rdf:about="">
        <dc:format>image/svg+xml</dc:format>
        <dc:type
           rdf:resource="http://purl.org/dc/dcmitype/StillImage" />
        <dc:title />
      </cc:Work>
    </rdf:RDF>
  </metadata>
  <g
     inkscape:label="Layer 1"
     inkscape:groupmode="layer"
     id="layer1"
     transform="translate(0,-1030.3622)">
    <path
       inkscape:connector-curvature="0"
       style="opacity:0.1;fill:url(#radialGradient3219);fill-opacity:1;stroke:none"
       d="m 11,1046.8622 c -4.9132745,0 -9.2639851,0.3915 -12,1 l 0,3 c 2.7360149,0.6085 7.0867255,1 12,1 4.913274,0 9.263985,-0.3915 12,-1 l 0,-3 c -2.736015,-0.6085 -7.086726,-1 -12,-1 z"
       id="path3868" />
    <rect
       style="fill:#388e3c;fill-opacity:1;stroke:none"
       id="rect2987"
       width="22"
       height="16.00001"
       x="0"
       y="1034.3622"
       rx="2.3913043"
       ry="2.5" />
    <path
       style="opacity:0.2;fill:#ffffff;fill-opacity:1;stroke:none"
       d="M 2.3913043,1034.3622 C 1.0665217,1034.3622 0,1035.4772 0,1036.8622 l 0,1 c 0,-1.385 1.0665217,-2.5 2.3913043,-2.5 l 17.2173917,0 c 1.324782,0 2.391304,1.115 2.391304,2.5 l 0,-1 c 0,-1.385 -1.066522,-2.5 -2.391304,-2.5 l -17.2173917,0 z"
       id="rect3797"
       inkscape:connector-curvature="0" />
    <path
       style="fill:#66bb6a;fill-opacity:1;stroke:none"
       d="m 2.3913043,1038.3622 3.826087,0 c 5.2608697,-0.5 4.3043477,-6 7.6521737,-6 l 5.739131,0 c 1.324782,0 2.391304,1.115 2.391304,2.5 l 0,13 c 0,1.385 -1.066522,2.5 -2.391304,2.5 l -17.2173917,0 C 1.0665217,1050.3622 0,1049.2472 0,1047.8622 l 0,-7 c 0,-1.5 0.9565217,-2.5 2.3913043,-2.5 z"
       id="rect3776"
       inkscape:connector-curvature="0"
       sodipodi:nodetypes="cccsssssscc" />
    <path
       style="opacity:0.15;fill:#000000;fill-opacity:1;stroke:none"
       d="m 0,1046.8622 0,1 c 0,1.385 1.0665217,2.5 2.3913043,2.5 l 17.2173917,0 c 1.324782,0 2.391304,-1.115 2.391304,-2.5 l 0,-1 c 0,1.385 -1.066522,2.5 -2.391304,2.5 l -17.2173917,0 C 1.0665217,1049.3622 0,1048.2472 0,1046.8622 z"
       id="path3786"
       inkscape:connector-curvature="0" />
    <path
       id="path5138"
       d="M 5.0625,1042.3622 C 3.3151849,1042.4042 2,1043.639 2,1044.9247 c 0,1.2857 0.875,1.3125 1.3125,1.3125 0.4375,0 0.875,-0.014 0.875,0.8438 0,0.8571 0.4375,1.2812 1.3125,1.2812 3.0625001,0 3.5,-2.1428 3.5,-3 0,-1.2856 -1.3125,-3 -3.9375,-3 z m 0.4375,1 c 0.2761424,0 0.5,0.2239 0.5,0.5 0,0.2761 -0.2238576,0.5 -0.5,0.5 -0.2761424,0 -0.5,-0.2239 -0.5,-0.5 0,-0.2761 0.2238576,-0.5 0.5,-0.5 z m -2,1 c 0.2761424,0 0.5,0.2239 0.5,0.5 0,0.2761 -0.2238576,0.5 -0.5,0.5 -0.2761424,0 -0.5,-0.2239 -0.5,-0.5 0,-0.2761 0.2238576,-0.5 0.5,-0.5 z m 4,0 c 0.2761424,0 0.5,0.2239 0.5,0.5 0,0.2761 -0.2238576,0.5 -0.5,0.5 -0.2761424,0 -0.5,-0.2239 -0.5,-0.5 0,-0.2761 0.2238576,-0.5 0.5,-0.5 z m -2,2 c 0.2761424,0 0.5,0.2239 0.5,0.5 0,0.2761 -0.2238576,0.5 -0.5,0.5 -0.2761424,0 -0.5,-0.2239 -0.5,-0.5 0,-0.2761 0.2238576,-0.5 0.5,-0.5 z"
       style="fill:#000000;fill-opacity:0.09803922;stroke:none"
       inkscape:connector-curvature="0" />
    <path
       style="opacity:1;fill:#fff8e1;fill-opacity:1;stroke:none"
       d="M 5.0625 11 C 3.3151849 11.042 2 12.2768 2 13.5625 C 2 14.8482 2.875 14.875 3.3125 14.875 C 3.75 14.875 4.1875 14.86095 4.1875 15.71875 C 4.1875 16.57585 4.625 17 5.5 17 C 8.5625001 17 9 14.8572 9 14 C 9 12.7144 7.6875 11 5.0625 11 z M 5.5 12 C 5.7761424 12 6 12.223858 6 12.5 C 6 12.776142 5.7761424 13 5.5 13 C 5.2238576 13 5 12.776142 5 12.5 C 5 12.223858 5.2238576 12 5.5 12 z M 3.5 13 C 3.7761424 13 4 13.223858 4 13.5 C 4 13.776142 3.7761424 14 3.5 14 C 3.2238576 14 3 13.776142 3 13.5 C 3 13.223858 3.2238576 13 3.5 13 z M 7.5 13 C 7.7761424 13 8 13.223858 8 13.5 C 8 13.776142 7.7761424 14 7.5 14 C 7.2238576 14 7 13.776142 7 13.5 C 7 13.223858 7.2238576 13 7.5 13 z M 5.5 15 C 5.7761424 15 6 15.223858 6 15.5 C 6 15.776142 5.7761424 16 5.5 16 C 5.2238576 16 5 15.776142 5 15.5 C 5 15.223858 5.2238576 15 5.5 15 z "
       transform="translate(0,1030.3622)"
       id="path3843" />
  </g>
</svg>

<!-- Created with Inkscape (http://www.inkscape.org/) -->
<svg xmlns="http://www.w3.org/2000/svg" viewBox="0 0 22 22">
 <defs>
  <radialGradient r="24" cy="40.5" cx="24" gradientTransform="matrix(0.625,0,0,0.10416663,-4,1045.1435)" gradientUnits="userSpaceOnUse" id="radialGradient3219">
   <stop style="stop-color:#000;stop-opacity:1"/>
   <stop offset="1" style="stop-color:#000;stop-opacity:0.196"/>
  </radialGradient>
 </defs>
 <g transform="translate(0,-1030.3622)">
  <path d="m 11 1046.86 c -4.913 0 -9.264 0.391 -12 1 l 0 3 c 2.736 0.609 7.087 1 12 1 4.913 0 9.264 -0.391 12 -1 l 0 -3 c -2.736 -0.609 -7.087 -1 -12 -1 z" style="fill:url(#radialGradient3219);opacity:0.1;fill-opacity:1;stroke:none"/>
  <rect width="22" height="16" y="1034.36" rx="2.391" ry="2.5" style="fill:#388e3c;fill-opacity:1;stroke:none"/>
  <path d="m 2.391 1034.36 c -1.325 0 -2.391 1.115 -2.391 2.5 l 0 1 c 0 -1.385 1.067 -2.5 2.391 -2.5 l 17.217 0 c 1.325 0 2.391 1.115 2.391 2.5 l 0 -1 c 0 -1.385 -1.067 -2.5 -2.391 -2.5 l -17.217 0 z" style="fill:#fff;opacity:0.2;fill-opacity:1;stroke:none"/>
  <path d="m 2.391 1038.36 3.826 0 c 5.261 -0.5 4.304 -6 7.652 -6 l 5.739 0 c 1.325 0 2.391 1.115 2.391 2.5 l 0 13 c 0 1.385 -1.067 2.5 -2.391 2.5 l -17.217 0 c -1.325 0 -2.391 -1.115 -2.391 -2.5 l 0 -7 c 0 -1.5 0.957 -2.5 2.391 -2.5 z" style="fill:#66bb6a;fill-opacity:1;stroke:none"/>
  <path d="m 0 1046.86 0 1 c 0 1.385 1.067 2.5 2.391 2.5 l 17.217 0 c 1.325 0 2.391 -1.115 2.391 -2.5 l 0 -1 c 0 1.385 -1.067 2.5 -2.391 2.5 l -17.217 0 c -1.325 0 -2.391 -1.115 -2.391 -2.5 z" style="fill:#000;opacity:0.15;fill-opacity:1;stroke:none"/>
  <path d="m 5.063 1042.36 c -1.747 0.042 -3.063 1.277 -3.063 2.563 c 0 1.286 0.875 1.313 1.313 1.313 0.438 0 0.875 -0.014 0.875 0.844 0 0.857 0.438 1.281 1.313 1.281 3.063 0 3.5 -2.143 3.5 -3 0 -1.286 -1.313 -3 -3.938 -3 z m 0.438 1 c 0.276 0 0.5 0.224 0.5 0.5 0 0.276 -0.224 0.5 -0.5 0.5 -0.276 0 -0.5 -0.224 -0.5 -0.5 0 -0.276 0.224 -0.5 0.5 -0.5 z m -2 1 c 0.276 0 0.5 0.224 0.5 0.5 0 0.276 -0.224 0.5 -0.5 0.5 -0.276 0 -0.5 -0.224 -0.5 -0.5 0 -0.276 0.224 -0.5 0.5 -0.5 z m 4 0 c 0.276 0 0.5 0.224 0.5 0.5 0 0.276 -0.224 0.5 -0.5 0.5 -0.276 0 -0.5 -0.224 -0.5 -0.5 0 -0.276 0.224 -0.5 0.5 -0.5 z m -2 2 c 0.276 0 0.5 0.224 0.5 0.5 0 0.276 -0.224 0.5 -0.5 0.5 -0.276 0 -0.5 -0.224 -0.5 -0.5 0 -0.276 0.224 -0.5 0.5 -0.5 z" style="fill:#000;fill-opacity:0.098;stroke:none"/>
  <path d="m 5.063 11 c -1.747 0.042 -3.063 1.277 -3.063 2.563 c 0 1.286 0.875 1.313 1.313 1.313 c 0.438 0 0.875 -0.014 0.875 0.844 c 0 0.857 0.438 1.281 1.313 1.281 c 3.063 0 3.5 -2.143 3.5 -3 c 0 -1.286 -1.313 -3 -3.938 -3 z m 0.438 1 c 0.276 0 0.5 0.224 0.5 0.5 c 0 0.276 -0.224 0.5 -0.5 0.5 c -0.276 0 -0.5 -0.224 -0.5 -0.5 c 0 -0.276 0.224 -0.5 0.5 -0.5 z m -2 1 c 0.276 0 0.5 0.224 0.5 0.5 c 0 0.276 -0.224 0.5 -0.5 0.5 c -0.276 0 -0.5 -0.224 -0.5 -0.5 c 0 -0.276 0.224 -0.5 0.5 -0.5 z m 4 0 c 0.276 0 0.5 0.224 0.5 0.5 c 0 0.276 -0.224 0.5 -0.5 0.5 c -0.276 0 -0.5 -0.224 -0.5 -0.5 c 0 -0.276 0.224 -0.5 0.5 -0.5 z m -2 2 c 0.276 0 0.5 0.224 0.5 0.5 c 0 0.276 -0.224 0.5 -0.5 0.5 c -0.276 0 -0.5 -0.224 -0.5 -0.5 c 0 -0.276 0.224 -0.5 0.5 -0.5 z" transform="translate(0,1030.3622)" style="fill:#fff8e1;opacity:1;fill-opacity:1;stroke:none"/>
 </g>
</svg>
